img/travel/icon/plane-landing.svg

<svg class="travel-icon" viewBox="0 0 100 100">
  <path fill="currentColor" d="M7.9289984,79.4764323 L92.2486493,79.4764323 L92.2486493,88.352185 L7.9289984,88.352185 L7.9289984,79.4764323 Z M89.622438,64.0669642 C90.6521378,60.5437704 88.5919398,56.8207387 85.0458893,55.829079 L61.600977,49.0938267 L50.0502519,8.86293107 L41.5428327,6.39161902 L40.9031112,43.1290127 L18.9572706,36.8285298 L14.9833256,26.4675856 L8.57610859,24.6369174 L8.2766592,40.8174944 L8.16579298,47.6367877 L15.2350374,49.6581471 L38.6799496,56.3933994 L57.8787438,61.923444 L81.3236561,68.6586963 C84.9306034,69.6351727 88.5927383,67.5901581 89.622438,64.0669642 Z"/>
</svg>

<svg class="travel-icon" viewBox="0 0 100 100"><path fill="currentColor" d="M7.929 79.476h84.32v8.876H7.929v-8.876zm81.693-15.409c1.03-3.523-1.03-7.246-4.576-8.238L61.6 49.094 50.051 8.863l-8.508-2.471-.64 36.737-21.946-6.3-3.974-10.361-6.407-1.831-.3 16.18-.11 6.82 7.069 2.021 23.445 6.735 19.199 5.53 23.445 6.736c3.607.976 7.269-1.069 8.298-4.592z"/></svg>
